icons/pie-alt.svg

<svg xmlns="http://www.w3.org/2000/svg" viewBox="0 0 24 24" fill="currentColor">
  <path d="M5.65996 6.72081C4.46743 8.15141 3.75 9.99192 3.75 12c0 4.3035 3.29513 7.8374 7.5 8.2164V14c0-.4856.1271-.9426.3498-1.3394L5.65996 6.72081Zm1.06065-1.06068 5.93979 5.93977c.3968-.2227.8539-.3499 1.3396-.3499h6.2164c-.379-4.20487-3.9129-7.5-8.2164-7.5-2.00817 0-3.84876.7175-5.27939 1.91013Zm6.04199 8.16337c-.0083.0577-.0126.1166-.0126.1765v6.2164c1.715-.1546 3.2787-.834 4.5292-1.8764l-4.5166-4.5165Zm5.5773 3.4559-4.5168-4.5167c.0579-.0084.1169-.0127.1769-.0127h6.2164c-.1546 1.7151-.834 3.2789-1.8765 4.5294ZM2.25 12c0-5.38478 4.36522-9.75 9.75-9.75 5.3848 0 9.75 4.36522 9.75 9.75 0 5.3848-4.3652 9.75-9.75 9.75-5.38478 0-9.75-4.3652-9.75-9.75Z"/>
</svg>

<svg width="24" height="24" viewBox="0 0 24 24" fill="none" xmlns="http://www.w3.org/2000/svg">
<path fill-rule="evenodd" clip-rule="evenodd" d="M5.65996 6.72081C4.46743 8.15141 3.75 9.99192 3.75 12C3.75 16.3035 7.04513 19.8374 11.25 20.2164V14C11.25 13.5144 11.3771 13.0574 11.5998 12.6606L5.65996 6.72081ZM6.72061 5.66013L12.6604 11.5999C13.0572 11.3772 13.5143 11.25 14 11.25H20.2164C19.8374 7.04513 16.3035 3.75 12 3.75C9.99183 3.75 8.15124 4.4675 6.72061 5.66013ZM12.7626 13.8235C12.7543 13.8812 12.75 13.9401 12.75 14V20.2164C14.465 20.0618 16.0287 19.3824 17.2792 18.34L12.7626 13.8235ZM18.3399 17.2794L13.8231 12.7627C13.881 12.7543 13.94 12.75 14 12.75H20.2164C20.0618 14.4651 19.3824 16.0289 18.3399 17.2794ZM2.25 12C2.25 6.61522 6.61522 2.25 12 2.25C17.3848 2.25 21.75 6.61522 21.75 12C21.75 17.3848 17.3848 21.75 12 21.75C6.61522 21.75 2.25 17.3848 2.25 12Z" fill="black"/>
</svg>
